svg/services/Hospitality.svg

<svg width="113" height="113" viewBox="0 0 113 113" fill="none" xmlns="http://www.w3.org/2000/svg">
<path d="M33.5469 95.3438H21.1875V98.875H33.5469V95.3438Z" fill="#E95C6D"/>
<path d="M49.4375 48.9961C47.7337 48.9961 46.3477 47.6101 46.3477 45.9062C46.3477 44.2024 47.7337 42.8164 49.4375 42.8164C51.1413 42.8164 52.5273 44.2024 52.5273 45.9062C52.5273 47.6101 51.1413 48.9961 49.4375 48.9961ZM49.4375 45.4648C49.1938 45.4648 48.9961 45.6626 48.9961 45.9062C48.9961 46.3918 49.8789 46.3918 49.8789 45.9062C49.8789 45.6626 49.6812 45.4648 49.4375 45.4648Z" fill="#E95C6D"/>
<path d="M31.7812 48.9961C30.0774 48.9961 28.6914 47.6101 28.6914 45.9062C28.6914 44.2024 30.0774 42.8164 31.7812 42.8164C33.4851 42.8164 34.8711 44.2024 34.8711 45.9062C34.8711 47.6101 33.4851 48.9961 31.7812 48.9961ZM31.7812 45.4648C31.5376 45.4648 31.3398 45.6626 31.3398 45.9062C31.3398 46.3918 32.2227 46.3918 32.2227 45.9062C32.2227 45.6626 32.0249 45.4648 31.7812 45.4648Z" fill="#E95C6D"/>
<path d="M40.6094 61.3555C36.9581 61.3555 33.9883 58.3839 33.9883 54.7344H36.6367C36.6367 56.9238 38.4182 58.707 40.6094 58.707C42.8005 58.707 44.582 56.9238 44.582 54.7344H47.2305C47.2305 58.3839 44.2607 61.3555 40.6094 61.3555Z" fill="#E95C6D"/>
<path d="M3.53124 61.7967C3.53124 57.9017 6.69877 54.7342 10.5937 54.7342V34.3447C10.5937 17.8397 23.142 4.32027 39.158 3.56458C39.6718 3.54163 41.5469 3.54163 42.0589 3.56458C58.0767 4.32027 70.625 17.8397 70.625 34.3447V54.7342C74.52 54.7342 77.6875 57.9017 77.6875 61.7967C77.6875 64.7188 75.9024 67.233 73.3652 68.3065C76.0102 70.5753 77.6875 73.9389 77.6875 77.6873C77.6875 79.7566 77.1684 81.7941 76.1832 83.6004C76.0331 84.3119 75.5846 86.0581 74.5323 88.108L76.2273 96.0816L82.8996 82.737L81.6513 76.4955C81.2611 74.5445 82.2305 72.5599 84.0102 71.67C85.7176 70.8155 87.7675 71.1527 89.1182 72.4999L90.4706 73.8523L102.339 69.1063C103.941 68.4637 105.754 68.6596 107.184 69.629C108.614 70.5983 109.469 72.2033 109.469 73.93C109.469 75.791 108.466 77.5196 106.85 78.443L96.8445 84.1601L89.9798 108.187C89.7626 108.946 89.0687 109.469 88.2812 109.469H72.3906H5.29687C4.76541 109.469 4.26397 109.23 3.9285 108.819C3.59304 108.407 3.46062 107.867 3.56656 107.348L7.40855 88.7118C6.43216 87.1634 5.65705 85.5284 5.12737 83.8334L5.0232 83.4944C4.88195 83.0283 4.71244 82.5692 4.54118 82.1084C4.06799 80.8248 3.53124 79.3717 3.53124 77.6873C3.53124 73.9389 5.20859 70.5753 7.85349 68.3065C5.31629 67.233 3.53124 64.7188 3.53124 61.7967ZM86.95 105.937L93.647 82.5004C93.7741 82.0572 94.069 81.6811 94.468 81.4516L105.099 75.3779C105.616 75.0795 105.937 74.5268 105.937 73.93C105.937 73.3686 105.671 72.8636 105.205 72.5493C104.739 72.235 104.172 72.1715 103.651 72.3816L90.7037 77.5619C90.0486 77.8215 89.2982 77.6714 88.7986 77.17L86.6233 74.9947C86.3514 74.7246 85.9347 74.6539 85.5904 74.827C85.2302 75.0071 85.036 75.4079 85.1137 75.8016L86.4803 82.6381C86.558 83.023 86.5033 83.422 86.3285 83.7752L75.2474 105.937H86.95ZM73.6937 101.147L70.0335 83.9235C70.0212 83.8634 70.0106 83.8034 70.0035 83.7399C69.9293 83.0301 69.4385 82.4386 68.8629 82.2603L57.7554 79.6719L55.0663 88.7807C54.8403 89.5488 55.2645 91.5 54.5 91.5C54.5 92 53.0588 90.0255 52.9017 89.9831L42.375 87.0698V105.937H61.7969V98.8748H65.3281V105.937H71.2995L73.6937 101.147ZM51.1042 78.1234C51.0089 78.4871 50.8394 78.8261 50.541 79.068L44.4125 83.9711L52.1724 86.1181L54.3106 78.8703L51.1042 78.1234ZM58.2656 38.8435H45.7367C40.8671 38.8435 35.7539 38.6228 33.9883 33.657C32.5943 37.5863 26.9169 38.727 22.9514 38.8259V47.6717C22.9514 57.4073 30.8719 65.3279 40.6076 65.3279C50.3433 65.3279 58.2639 57.4073 58.2639 47.6717V38.8435H58.2656ZM30.6777 79.0662C30.3829 78.8296 30.2169 78.4977 30.118 78.1411L27.0476 78.8861L29.7349 86.1181L36.8627 84.0118L30.6777 79.0662ZM40.6094 68.8592C38.1304 68.8592 35.7592 68.4089 33.5469 67.6232V76.8398L40.6094 82.4898L47.6719 76.8398V67.6232C45.4595 68.4089 43.0883 68.8592 40.6094 68.8592ZM15.8906 105.937V98.8748H19.4219V105.937H38.8437V87.1122L29.154 89.9743C28.2659 90.2409 26.5 93 26.9982 88.8972L23.5923 79.7283L13.2722 82.2355C12.5871 82.4403 12.0963 83.0318 11.9956 83.9129L7.46329 105.937H15.8906Z" fill="#E95C6D"/>
<path d="M95.2444 41.8365C92.2914 42.0042 89.6275 43.1894 87.6567 45.0212C85.5114 47.0142 84.185 49.7686 84.185 52.8143C84.185 52.8385 84.1872 52.865 84.1894 52.8893C84.196 53.2866 84.5183 53.6044 84.9155 53.6044V53.6066H107.03C107.432 53.6066 107.758 53.2799 107.758 52.8783L107.756 52.8143H107.761C107.761 49.7686 106.434 47.012 104.289 45.0212C102.318 43.1916 99.6563 42.0064 96.7033 41.8387V39.859H98.2791C98.6808 39.859 99.0074 39.5323 99.0074 39.1307C99.0074 38.729 98.6808 38.4023 98.2791 38.4023H95.9728H93.5825C93.1809 38.4023 92.8542 38.729 92.8542 39.1307C92.8542 39.5323 93.1809 39.859 93.5825 39.859H95.2444V41.8365ZM108.74 54.4982H83.0793C82.6776 54.4982 82.351 54.8249 82.351 55.2265V58.899C82.351 59.3007 82.6776 59.6274 83.0793 59.6274H108.74C109.142 59.6274 109.469 59.3007 109.469 58.899V55.2265C109.469 54.8249 109.142 54.4982 108.74 54.4982ZM83.8076 55.9549H108.01V58.1685H83.8054V55.9549H83.8076ZM88.6476 46.085C90.5192 44.3481 93.108 43.2733 95.9728 43.2733C98.8375 43.2733 101.426 44.3481 103.298 46.085C104.997 47.663 106.103 49.7884 106.28 52.1477H85.6703C85.8447 49.7884 86.9504 47.663 88.6476 46.085Z" fill="#E95C6D"/>
</svg>

<svg width="113" height="113" fill="none" xmlns="http://www.w3.org/2000/svg"><path d="M33.547 95.344h-12.36v3.531h12.36v-3.531zM49.438 48.996a3.093 3.093 0 01-3.09-3.09 3.093 3.093 0 013.09-3.09 3.093 3.093 0 013.09 3.09 3.093 3.093 0 01-3.09 3.09zm0-3.531a.442.442 0 00-.442.441c0 .486.883.486.883 0a.442.442 0 00-.441-.441zM31.781 48.996a3.093 3.093 0 01-3.09-3.09 3.093 3.093 0 013.09-3.09 3.093 3.093 0 013.09 3.09 3.093 3.093 0 01-3.09 3.09zm0-3.531a.442.442 0 00-.441.441c0 .486.883.486.883 0a.442.442 0 00-.442-.441zM40.61 61.355a6.63 6.63 0 01-6.622-6.62h2.649a3.977 3.977 0 003.972 3.972 3.977 3.977 0 003.973-3.973h2.648a6.63 6.63 0 01-6.62 6.621z" fill="#E95C6D"/><path d="M3.531 61.797a7.07 7.07 0 017.063-7.063v-20.39c0-16.504 12.548-30.024 28.564-30.78a61.121 61.121 0 012.9 0c16.019.756 28.567 14.276 28.567 30.78v20.39a7.07 7.07 0 017.063 7.063c0 2.922-1.786 5.436-4.323 6.51a12.333 12.333 0 014.323 9.38c0 2.07-.52 4.107-1.505 5.913-.15.712-.598 2.458-1.65 4.508l1.694 7.974L82.9 82.737l-1.249-6.241a4.434 4.434 0 012.36-4.826 4.42 4.42 0 015.107.83l1.353 1.352 11.868-4.746a5.187 5.187 0 014.845.523 5.19 5.19 0 012.285 4.301 5.208 5.208 0 01-2.619 4.513L96.845 84.16l-6.865 24.027a1.768 1.768 0 01-1.699 1.282H5.297a1.765 1.765 0 01-1.73-2.121l3.842-18.636a20.799 20.799 0 01-2.282-4.879l-.104-.339c-.141-.466-.31-.925-.482-1.386-.473-1.283-1.01-2.736-1.01-4.42 0-3.75 1.678-7.113 4.322-9.382-2.537-1.073-4.322-3.587-4.322-6.51zm83.419 44.14L93.647 82.5c.127-.443.422-.819.821-1.048l10.631-6.074c.517-.299.838-.851.838-1.448 0-.561-.266-1.066-.732-1.38a1.643 1.643 0 00-1.554-.168l-12.947 5.18a1.77 1.77 0 01-1.905-.392l-2.176-2.175a.897.897 0 00-1.033-.168.897.897 0 00-.476.975l1.366 6.836c.078.385.023.784-.151 1.137l-11.082 22.162H86.95zm-13.256-4.79l-3.66-17.224a2.032 2.032 0 01-.03-.183c-.075-.71-.566-1.301-1.141-1.48l-11.108-2.588-2.689 9.109c-.226.768.198 2.719-.566 2.719 0 .5-1.441-1.475-1.598-1.517L42.375 87.07v18.867h19.422v-7.062h3.531v7.062H71.3l2.395-4.79zm-22.59-23.024c-.095.364-.265.703-.563.945l-6.128 4.903 7.76 2.147 2.138-7.248-3.207-.747zm7.162-39.28h-12.53c-4.869 0-9.982-.22-11.748-5.186-1.394 3.93-7.071 5.07-11.037 5.169v8.846c0 9.735 7.92 17.656 17.657 17.656 9.735 0 17.656-7.92 17.656-17.656v-8.828h.002zM30.678 79.066c-.295-.236-.461-.568-.56-.925l-3.07.745 2.687 7.232 7.128-2.106-6.185-4.946zm9.931-10.207c-2.479 0-4.85-.45-7.062-1.236v9.217l7.062 5.65 7.063-5.65v-9.217a21.05 21.05 0 01-7.063 1.236zm-24.718 37.078v-7.062h3.53v7.062h19.423V87.112l-9.69 2.862c-.888.267-2.654 3.026-2.156-1.077l-3.406-9.169-10.32 2.508c-.685.204-1.176.796-1.276 1.677l-4.533 22.024h8.428z" fill="#E95C6D"/><path d="M95.244 41.837c-2.953.167-5.617 1.352-7.587 3.184-2.146 1.993-3.472 4.748-3.472 7.793 0 .025.002.051.004.075a.726.726 0 00.727.715v.003h22.114a.729.729 0 00.728-.729l-.002-.064h.005c0-3.045-1.327-5.802-3.472-7.793-1.971-1.83-4.633-3.015-7.586-3.182v-1.98h1.576a.729.729 0 000-1.457h-4.696a.73.73 0 000 1.457h1.661v1.977zm13.496 12.661H83.08a.729.729 0 00-.729.729v3.672a.73.73 0 00.728.728h25.661a.73.73 0 00.729-.728v-3.672a.73.73 0 00-.729-.729zm-24.932 1.457h24.202v2.214H83.805v-2.214h.003zm4.84-9.87c1.871-1.737 4.46-2.812 7.325-2.812s5.453 1.075 7.325 2.812c1.699 1.578 2.805 3.703 2.982 6.063H85.67c.175-2.36 1.28-4.485 2.978-6.063z" fill="#E95C6D"/></svg>
